packages/icons/svg/Outline/cloud-upload.svg

<svg width="24" height="24" viewBox="0 0 24 24" fill="none" xmlns="http://www.w3.org/2000/svg">
<g id="Icon/Outline/cloud-upload">
<path id="Mask" fill-rule="evenodd" clip-rule="evenodd" d="M11.9998 2.99988C14.5808 2.99988 16.8548 4.66088 17.6748 7.04488C20.1138 7.37588 21.9998 9.47188 21.9998 11.9999C21.9998 13.2209 21.5558 14.3959 20.7498 15.3089C20.5518 15.5319 20.2768 15.6469 19.9998 15.6469C19.7648 15.6469 19.5288 15.5649 19.3378 15.3969C18.9248 15.0299 18.8848 14.3989 19.2508 13.9839C19.7338 13.4379 19.9998 12.7319 19.9998 11.9999C19.9998 10.3459 18.6538 8.99988 16.9998 8.99988H16.8998C16.4238 8.99988 16.0138 8.66388 15.9198 8.19688C15.5458 6.34488 13.8978 4.99988 11.9998 4.99988C10.1028 4.99988 8.45376 6.34488 8.08076 8.19688C7.98676 8.66388 7.57576 8.99988 7.09976 8.99988H6.99976C5.34576 8.99988 3.99976 10.3459 3.99976 11.9999C3.99976 12.7319 4.26576 13.4379 4.74976 13.9839C5.11476 14.3989 5.07576 15.0299 4.66176 15.3969C4.24776 15.7629 3.61576 15.7219 3.25076 15.3089C2.44376 14.3959 1.99976 13.2209 1.99976 11.9999C1.99976 9.47188 3.88576 7.37588 6.32476 7.04488C7.14576 4.66088 9.41976 2.99988 11.9998 2.99988ZM11.305 11.28C11.699 10.904 12.322 10.907 12.707 11.293L15.707 14.293C16.098 14.684 16.098 15.316 15.707 15.707C15.512 15.902 15.256 16 15 16C14.744 16 14.488 15.902 14.293 15.707L13 14.414V20C13 20.553 12.552 21 12 21C11.448 21 11 20.553 11 20V14.356L9.69496 15.616C9.29796 16.001 8.66496 15.988 8.28096 15.591C7.89696 15.193 7.90796 14.561 8.30496 14.177L11.305 11.28Z" fill="#000000"/>
</g>
</svg>

<svg fill="none" height="24" viewBox="0 0 24 24" width="24" xmlns="http://www.w3.org/2000/svg"><path clip-rule="evenodd" d="m11.9998 3c2.581 0 4.855 1.661 5.675 4.045 2.439.331 4.325 2.427 4.325 4.955 0 1.221-.444 2.396-1.25 3.309-.198.223-.473.338-.75.338-.235 0-.471-.082-.662-.25-.413-.367-.453-.998-.087-1.413.483-.546.749-1.252.749-1.984 0-1.654-1.346-3-3-3h-.1c-.476 0-.886-.336-.98-.803-.374-1.852-2.022-3.197-3.92-3.197-1.897 0-3.54598 1.345-3.91898 3.197-.094.467-.505.803-.981.803h-.1c-1.654 0-3 1.346-3 3 0 .732.266 1.438.75 1.984.365.415.326 1.046-.088 1.413-.414.366-1.046.325-1.411-.088-.807-.913-1.251-2.088-1.251-3.309 0-2.528 1.886-4.624 4.325-4.955.821-2.384 3.095-4.045 5.67498-4.045zm-.6948 8.28c.394-.376 1.017-.373 1.402.013l3 3c.391.391.391 1.023 0 1.414-.195.195-.451.293-.707.293s-.512-.098-.707-.293l-1.293-1.293v5.586c0 .553-.448 1-1 1s-1-.447-1-1v-5.644l-1.30498 1.26c-.39699.385-1.02999.372-1.41399-.025-.384-.398-.373-1.03.024-1.414z" fill="#6b7280" fill-rule="evenodd"/></svg>
